X:1
T:Ferguson's Jig
C:Laurence Beaudry
Z:robin.beech@mcgill.ca
R:jig
M:6/8
L:1/8
K:A
ecA EAc | edc B3 | FBB =GBB | ^GBB cAf |
ecA EAc | edc B3 | FBc dcB | efg a3 ::
fdA dfa | g2e c3 | dBF =GBc | dBG cde |
fdf gab | g2e c3 | fdB gec | dBG A3 :|
